X: 27411
T: Moig Cross
R: slide
M: 12/8
K: Amixolydian
|:G|E3 AGE G2 A B2 d|E3 AGE G2 E D3|
E3 AGE G2 A B2 d|e2 d BAG A3 A2:|
z|e3 efe d3 dcd|e3 e2 f g2 e d3|
e3 efe d3 d2 c|ABc B2 A G2 E D3|
e3 efe d3 dcd|e3 e2 f g2 e d2 B|
c3 cBA c3 cBA|ABc B/c/BA G/A/GE D2||

